X:14282
T:Rigaudon
C:trad
A:Dauphin
O:France
M:2/4
L:1/8
Q:1/4=120
K:C
cd ee|ff g2|gg ag|1ff ee:|2ff e2|
|:df ed|ec d2|GA Bc|1df ec:|2de c2||
